files/en-us/web/progressive_web_apps/guides/what_is_a_progressive_web_app/pwa-environment.svg

<svg xmlns="http://www.w3.org/2000/svg" style="background-color:#fff" xmlns:xlink="http://www.w3.org/1999/xlink" width="561" height="382" viewBox="-0.5 -0.5 561 382"><path fill="#FFF" stroke="#000" pointer-events="all" d="M0 0h560v380H0z"/><path fill="#e6e6e6" stroke="#000" pointer-events="all" d="M22 292.25h130v60H22z"/><switch transform="translate(-.5 -.5)"><foreignObject style="overflow:visible;text-align:left" pointer-events="none" width="100%" height="100%" requiredFeatures="http://www.w3.org/TR/SVG11/feature#Extensibility"><div xmlns="http://www.w3.org/1999/xhtml" style="display:flex;align-items:unsafe center;justify-content:unsafe center;width:128px;height:1px;padding-top:322px;margin-left:23px"><div style="box-sizing:border-box;font-size:0;text-align:center" data-drawio-colors="color: rgb(0, 0, 0);"><div style="display:inline-block;font-size:14px;font-family:Helvetica;color:#000;line-height:1.2;pointer-events:all;font-weight:700;white-space:normal;overflow-wrap:normal">Platform-specific app</div></div></div></foreignObject><text x="87" y="326" font-family="Helvetica" font-size="14" text-anchor="middle" font-weight="bold">Platform-specific...</text></switch><path fill="#e6e6e6" stroke="#000" pointer-events="all" d="M22 195.25h130v60H22z"/><switch transform="translate(-.5 -.5)"><foreignObject style="overflow:visible;text-align:left" pointer-events="none" width="100%" height="100%" requiredFeatures="http://www.w3.org/TR/SVG11/feature#Extensibility"><div xmlns="http://www.w3.org/1999/xhtml" style="display:flex;align-items:unsafe center;justify-content:unsafe center;width:128px;height:1px;padding-top:225px;margin-left:23px"><div style="box-sizing:border-box;font-size:0;text-align:center" data-drawio-colors="color: rgb(0, 0, 0);"><div style="display:inline-block;font-size:14px;font-family:Helvetica;color:#000;line-height:1.2;pointer-events:all;font-weight:700;white-space:normal;overflow-wrap:normal">Progressive web app</div></div></div></foreignObject><text x="87" y="229" font-family="Helvetica" font-size="14" text-anchor="middle" font-weight="bold">Progressive web app</text></switch><path fill="#FFF" stroke="#000" pointer-events="all" d="M212 18.25h140v140H212zm-1 177h140v60H211z"/><switch transform="translate(-.5 -.5)"><foreignObject style="overflow:visible;text-align:left" pointer-events="none" width="100%" height="100%" requiredFeatures="http://www.w3.org/TR/SVG11/feature#Extensibility"><div xmlns="http://www.w3.org/1999/xhtml" style="display:flex;align-items:unsafe center;justify-content:unsafe center;width:138px;height:1px;padding-top:225px;margin-left:212px"><div style="box-sizing:border-box;font-size:0;text-align:center" data-drawio-colors="color: rgb(0, 0, 0);"><div style="display:inline-block;font-size:14px;font-family:Helvetica;color:#000;line-height:1.2;pointer-events:all;white-space:normal;overflow-wrap:normal">Browser engine</div></div></div></foreignObject><text x="281" y="229" font-family="Helvetica" font-size="14" text-anchor="middle">Browser engine</text></switch><path fill="#FFF" stroke="#000" pointer-events="all" d="M413 18.25h120v330H413z"/><switch transform="translate(-.5 -.5)"><foreignObject style="overflow:visible;text-align:left" pointer-events="none" width="100%" height="100%" requiredFeatures="http://www.w3.org/TR/SVG11/feature#Extensibility"><div xmlns="http://www.w3.org/1999/xhtml" style="display:flex;align-items:unsafe center;justify-content:unsafe center;width:118px;height:1px;padding-top:183px;margin-left:414px"><div style="box-sizing:border-box;font-size:0;text-align:center" data-drawio-colors="color: rgb(0, 0, 0);"><div style="display:inline-block;font-size:14px;font-family:Helvetica;color:#000;line-height:1.2;pointer-events:all;white-space:normal;overflow-wrap:normal">Operating system</div></div></div></foreignObject><text x="473" y="187" font-family="Helvetica" font-size="14" text-anchor="middle">Operating system</text></switch><path fill="#e6e6e6" stroke="#000" pointer-events="all" d="M222 68.25h120v60H222z"/><switch transform="translate(-.5 -.5)"><foreignObject style="overflow:visible;text-align:left" pointer-events="none" width="100%" height="100%" requiredFeatures="http://www.w3.org/TR/SVG11/feature#Extensibility"><div xmlns="http://www.w3.org/1999/xhtml" style="display:flex;align-items:unsafe center;justify-content:unsafe center;width:118px;height:1px;padding-top:98px;margin-left:223px"><div style="box-sizing:border-box;font-size:0;text-align:center" data-drawio-colors="color: rgb(0, 0, 0);"><div style="display:inline-block;font-size:14px;font-family:Helvetica;color:#000;line-height:1.2;pointer-events:all;font-weight:700;white-space:normal;overflow-wrap:normal">Traditional website</div></div></div></foreignObject><text x="282" y="102" font-family="Helvetica" font-size="14" text-anchor="middle" font-weight="bold">Traditional websi...</text></switch><path fill="#FFF" pointer-events="all" d="M221 31.75h120v20H221z"/><switch transform="translate(-.5 -.5)"><foreignObject style="overflow:visible;text-align:left" pointer-events="none" width="100%" height="100%" requiredFeatures="http://www.w3.org/TR/SVG11/feature#Extensibility"><div xmlns="http://www.w3.org/1999/xhtml" style="display:flex;align-items:unsafe center;justify-content:unsafe center;width:118px;height:1px;padding-top:42px;margin-left:222px"><div style="box-sizing:border-box;font-size:0;text-align:center" data-drawio-colors="color: rgb(0, 0, 0);"><div style="display:inline-block;font-size:14px;font-family:Helvetica;color:#000;line-height:1.2;pointer-events:all;white-space:normal;overflow-wrap:normal">Browser UI</div></div></div></foreignObject><text x="281" y="46" font-family="Helvetica" font-size="14" text-anchor="middle">Browser UI</text></switch><path d="m286.29 175.83 10.5.15-15.78 18.77-15.22-19.23 10.5.16.42-28.01-10.5-.15 15.78-18.77 15.22 19.23-10.5-.16Zm-93.79 44.42v-10.5l19 15.5-19 15.5v-10.5h-21v10.5l-19-15.5 19-15.5v10.5Z" fill="#FFF" stroke="#000" stroke-miterlimit="10" pointer-events="all"/><path d="M171.5 327.25v10.5l-19-15.5 19-15.5v10.5h223v-10.5l19 15.5-19 15.5v-10.5Zm199.99-96.97-.02 10.5-18.97-15.53 19.03-15.47-.02 10.5 22 .04.02-10.5 18.97 15.54-19.03 15.46.02-10.5Z" fill="none" stroke="#000" stroke-miterlimit="10" pointer-events="all"/><path fill="none" pointer-events="all" d="M22 18.25h60V59H22z"/><switch transform="translate(-.5 -.5)"><foreignObject style="overflow:visible;text-align:left" pointer-events="none" width="100%" height="100%" requiredFeatures="http://www.w3.org/TR/SVG11/feature#Extensibility"><div xmlns="http://www.w3.org/1999/xhtml" style="display:flex;align-items:unsafe center;justify-content:unsafe center;width:58px;height:1px;padding-top:39px;margin-left:23px"><div style="box-sizing:border-box;font-size:0;text-align:center" data-drawio-colors="color: rgb(0, 0, 0);"><div style="display:inline-block;font-size:14px;font-family:Helvetica;color:#000;line-height:1.2;pointer-events:all;white-space:normal;overflow-wrap:normal">Device</div></div></div></foreignObject><text x="52" y="43" font-family="Helvetica" font-size="14" text-anchor="middle">Device</text></switch><path d="m371.49 99.86-.02 10.5-18.97-15.53 19.03-15.47-.02 10.5 22 .04.02-10.5 18.97 15.54-19.03 15.46.02-10.5Z" fill="none" stroke="#000" stroke-miterlimit="10" pointer-events="all"/><switch><a transform="translate(0 -5)" xlink:href="https://www.diagrams.net/doc/faq/svg-export-text-problems" target="_blank"><text text-anchor="middle" font-size="10" x="50%" y="100%">Text is not SVG - cannot display</text></a></switch></svg>

<?xml version="1.0" encoding="UTF-8"?>
<!-- Do not edit this file with editors other than diagrams.net -->
<!DOCTYPE svg PUBLIC "-//W3C//DTD SVG 1.1//EN" "http://www.w3.org/Graphics/SVG/1.1/DTD/svg11.dtd">
<svg xmlns="http://www.w3.org/2000/svg" style="background-color: rgb(255, 255, 255);" xmlns:xlink="http://www.w3.org/1999/xlink" version="1.1" width="561px" height="382px" viewBox="-0.5 -0.5 561 382" content="&lt;mxfile host=&quot;app.diagrams.net&quot; modified=&quot;2023-05-05T17:41:31.548Z&quot; agent=&quot;5.0 (Macintosh)&quot; etag=&quot;ePt7pPX_WOH0_aUEk6Nb&quot; version=&quot;21.0.7&quot;&gt;&lt;diagram name=&quot;Page-1&quot; id=&quot;PNs5_P4Kho3gLQS9rY3-&quot;&gt;7Vlbb9owFP41PK6K49x4HNBdpF0qsWnb0+QmJlgzcWZMCfv1s4lzdZKyQUo1raWVfY59knznO5/tMIHzTfaao3T9nkWYTmwryiZwMbFt33flf2U45AbPy/sxJ1FuAZVhSX5hbbS0dUcivG0MFIxRQdKmMWRJgkPRsCHO2b45bMVo86opirFhWIaImtYvJBLr3GpbVmV/g0m81lf2tH2DiqHasF2jiO1rJng7gXPOmMhbm2yOqQKuQCWf96rHW94Wx4k4ZcI7sgRrD37fZxn6MP/5xg0+LV8UN/eA6E4/r75bcSgA4GyXRFhFsSZwtl8TgZcpCpV3LxMubWuxobIHZDNlJBFHxN2Z/Mjw8+afK0POC88NAANOdSP9TnfACeGA03EGnENRXW/A6fkDTn8orB8MOINpr7MHujYyHc6+mUMTh+b5QxP9/pmgdxoYyjEYyBQYwht03Yn8wNmKJUJLD3BkX1cF5gJnvfUGyiqW0ofZBgt+kEOyQiHyGVr1YKAj7CsRcQuxWNcEBAbaiLRwxWXoqrplQxf4HxS7Y9T6HUVixfjmxTbFIVmRUF02Tc+TgBWhdM4o48e58NZTvwXGOiYYB3PHbmDu+fDIoRbsAHbA7o2FumuizlnM8XZLHrC6MXz/b6Hu+t71UfcvvK5RdI/pHdsSQVgibaHEBkusZwo5IncL71oDBFMRECVx5/CX2nHPhGCbkRQINhMDp9POxDgdiSmNF89MYGRmpjZpEh3bwklMEnxmIYwBJDiJ4V1AjsbwqYHjxxRzJEgSK/QOW4E3zw5JR+3MTqCk3bUwwrGg9AwoP3EUHSsZ0VyiZV2fy8vrCXRboR3ndNRH4y8wUa+E4PPb88DeCs5+lOc1qwV/hFdoR0U5rrAnTIrPSBloKogD7Bv/xAzYo2XAlGIDdXlqTVVzRXH2Up2mJR44iXRzEVIk9zHhEUnEhWmu5aSZQAkcP3xVHbmT191veuSxs8jqIxeHwTzijIhaMNn7VsyW7SqU6pSROtOMI+N1QCvJEh+24yF+fI2TkMRYPCY8JmnqjLC6FufCyLHcwKttZOOlRwdP9DXu1Om8YiW0WuuaW+lCESV/Vj2x/nqhFcvxWxoTmLFyPIxYR/KWj38Gn80l8Qp8BnU218j9R3z+e24+yjn3upxrb0o9y7sY59yOWCNzrgDgOpzTqgfqmlcq4JOrnnNlNWuzoUOBTmYWdBqxfAs+ObPs56BmVkvN3OARPTv27jAn8vnVifcs0j0fMp0lU61Dj4oFXf9p2QQNNi3wAwnPPNR0759rS9p4W+rWmabnJNn1htWxyr33xffUtvm673/VXq1qHd+9CaBV/TiXqWAVdwovVcGyW30NmA+vvkiFt78B&lt;/diagram&gt;&lt;/mxfile&gt;"><defs/><g><rect x="0" y="0" width="560" height="380" fill="rgb(255, 255, 255)" stroke="rgb(0, 0, 0)" pointer-events="all"/><rect x="22" y="292.25" width="130" height="60" fill="#e6e6e6" stroke="rgb(0, 0, 0)" pointer-events="all"/><g transform="translate(-0.5 -0.5)"><switch><foreignObject style="overflow: visible; text-align: left;" pointer-events="none" width="100%" height="100%" requiredFeatures="http://www.w3.org/TR/SVG11/feature#Extensibility"><div xmlns="http://www.w3.org/1999/xhtml" style="display: flex; align-items: unsafe center; justify-content: unsafe center; width: 128px; height: 1px; padding-top: 322px; margin-left: 23px;"><div style="box-sizing: border-box; font-size: 0px; text-align: center;" data-drawio-colors="color: rgb(0, 0, 0); "><div style="display: inline-block; font-size: 14px; font-family: Helvetica; color: rgb(0, 0, 0); line-height: 1.2; pointer-events: all; font-weight: bold; white-space: normal; overflow-wrap: normal;">Platform-specific app</div></div></div></foreignObject><text x="87" y="326" fill="rgb(0, 0, 0)" font-family="Helvetica" font-size="14px" text-anchor="middle" font-weight="bold">Platform-specific...</text></switch></g><rect x="22" y="195.25" width="130" height="60" fill="#e6e6e6" stroke="rgb(0, 0, 0)" pointer-events="all"/><g transform="translate(-0.5 -0.5)"><switch><foreignObject style="overflow: visible; text-align: left;" pointer-events="none" width="100%" height="100%" requiredFeatures="http://www.w3.org/TR/SVG11/feature#Extensibility"><div xmlns="http://www.w3.org/1999/xhtml" style="display: flex; align-items: unsafe center; justify-content: unsafe center; width: 128px; height: 1px; padding-top: 225px; margin-left: 23px;"><div style="box-sizing: border-box; font-size: 0px; text-align: center;" data-drawio-colors="color: rgb(0, 0, 0); "><div style="display: inline-block; font-size: 14px; font-family: Helvetica; color: rgb(0, 0, 0); line-height: 1.2; pointer-events: all; font-weight: bold; white-space: normal; overflow-wrap: normal;">Progressive web app</div></div></div></foreignObject><text x="87" y="229" fill="rgb(0, 0, 0)" font-family="Helvetica" font-size="14px" text-anchor="middle" font-weight="bold">Progressive web app</text></switch></g><rect x="212" y="18.25" width="140" height="140" fill="rgb(255, 255, 255)" stroke="rgb(0, 0, 0)" pointer-events="all"/><rect x="211" y="195.25" width="140" height="60" fill="rgb(255, 255, 255)" stroke="rgb(0, 0, 0)" pointer-events="all"/><g transform="translate(-0.5 -0.5)"><switch><foreignObject style="overflow: visible; text-align: left;" pointer-events="none" width="100%" height="100%" requiredFeatures="http://www.w3.org/TR/SVG11/feature#Extensibility"><div xmlns="http://www.w3.org/1999/xhtml" style="display: flex; align-items: unsafe center; justify-content: unsafe center; width: 138px; height: 1px; padding-top: 225px; margin-left: 212px;"><div style="box-sizing: border-box; font-size: 0px; text-align: center;" data-drawio-colors="color: rgb(0, 0, 0); "><div style="display: inline-block; font-size: 14px; font-family: Helvetica; color: rgb(0, 0, 0); line-height: 1.2; pointer-events: all; white-space: normal; overflow-wrap: normal;">Browser engine</div></div></div></foreignObject><text x="281" y="229" fill="rgb(0, 0, 0)" font-family="Helvetica" font-size="14px" text-anchor="middle">Browser engine</text></switch></g><rect x="413" y="18.25" width="120" height="330" fill="rgb(255, 255, 255)" stroke="rgb(0, 0, 0)" pointer-events="all"/><g transform="translate(-0.5 -0.5)"><switch><foreignObject style="overflow: visible; text-align: left;" pointer-events="none" width="100%" height="100%" requiredFeatures="http://www.w3.org/TR/SVG11/feature#Extensibility"><div xmlns="http://www.w3.org/1999/xhtml" style="display: flex; align-items: unsafe center; justify-content: unsafe center; width: 118px; height: 1px; padding-top: 183px; margin-left: 414px;"><div style="box-sizing: border-box; font-size: 0px; text-align: center;" data-drawio-colors="color: rgb(0, 0, 0); "><div style="display: inline-block; font-size: 14px; font-family: Helvetica; color: rgb(0, 0, 0); line-height: 1.2; pointer-events: all; white-space: normal; overflow-wrap: normal;">Operating system</div></div></div></foreignObject><text x="473" y="187" fill="rgb(0, 0, 0)" font-family="Helvetica" font-size="14px" text-anchor="middle">Operating system</text></switch></g><rect x="222" y="68.25" width="120" height="60" fill="#e6e6e6" stroke="rgb(0, 0, 0)" pointer-events="all"/><g transform="translate(-0.5 -0.5)"><switch><foreignObject style="overflow: visible; text-align: left;" pointer-events="none" width="100%" height="100%" requiredFeatures="http://www.w3.org/TR/SVG11/feature#Extensibility"><div xmlns="http://www.w3.org/1999/xhtml" style="display: flex; align-items: unsafe center; justify-content: unsafe center; width: 118px; height: 1px; padding-top: 98px; margin-left: 223px;"><div style="box-sizing: border-box; font-size: 0px; text-align: center;" data-drawio-colors="color: rgb(0, 0, 0); "><div style="display: inline-block; font-size: 14px; font-family: Helvetica; color: rgb(0, 0, 0); line-height: 1.2; pointer-events: all; font-weight: bold; white-space: normal; overflow-wrap: normal;">Traditional website</div></div></div></foreignObject><text x="282" y="102" fill="rgb(0, 0, 0)" font-family="Helvetica" font-size="14px" text-anchor="middle" font-weight="bold">Traditional websi...</text></switch></g><rect x="221" y="31.75" width="120" height="20" fill="rgb(255, 255, 255)" stroke="none" pointer-events="all"/><g transform="translate(-0.5 -0.5)"><switch><foreignObject style="overflow: visible; text-align: left;" pointer-events="none" width="100%" height="100%" requiredFeatures="http://www.w3.org/TR/SVG11/feature#Extensibility"><div xmlns="http://www.w3.org/1999/xhtml" style="display: flex; align-items: unsafe center; justify-content: unsafe center; width: 118px; height: 1px; padding-top: 42px; margin-left: 222px;"><div style="box-sizing: border-box; font-size: 0px; text-align: center;" data-drawio-colors="color: rgb(0, 0, 0); "><div style="display: inline-block; font-size: 14px; font-family: Helvetica; color: rgb(0, 0, 0); line-height: 1.2; pointer-events: all; white-space: normal; overflow-wrap: normal;">Browser UI</div></div></div></foreignObject><text x="281" y="46" fill="rgb(0, 0, 0)" font-family="Helvetica" font-size="14px" text-anchor="middle">Browser UI</text></switch></g><path d="M 286.29 175.83 L 296.79 175.98 L 281.01 194.75 L 265.79 175.52 L 276.29 175.68 L 276.71 147.67 L 266.21 147.52 L 281.99 128.75 L 297.21 147.98 L 286.71 147.82 Z" fill="rgb(255, 255, 255)" stroke="rgb(0, 0, 0)" stroke-miterlimit="10" pointer-events="all"/><path d="M 192.5 220.25 L 192.5 209.75 L 211.5 225.25 L 192.5 240.75 L 192.5 230.25 L 171.5 230.25 L 171.5 240.75 L 152.5 225.25 L 171.5 209.75 L 171.5 220.25 Z" fill="rgb(255, 255, 255)" stroke="rgb(0, 0, 0)" stroke-miterlimit="10" pointer-events="all"/><path d="M 171.5 327.25 L 171.5 337.75 L 152.5 322.25 L 171.5 306.75 L 171.5 317.25 L 394.5 317.25 L 394.5 306.75 L 413.5 322.25 L 394.5 337.75 L 394.5 327.25 Z" fill="none" stroke="rgb(0, 0, 0)" stroke-miterlimit="10" pointer-events="all"/><path d="M 371.49 230.28 L 371.47 240.78 L 352.5 225.25 L 371.53 209.78 L 371.51 220.28 L 393.51 220.32 L 393.53 209.82 L 412.5 225.36 L 393.47 240.82 L 393.49 230.32 Z" fill="none" stroke="rgb(0, 0, 0)" stroke-miterlimit="10" pointer-events="all"/><rect x="22" y="18.25" width="60" height="40.75" fill="none" stroke="none" pointer-events="all"/><g transform="translate(-0.5 -0.5)"><switch><foreignObject style="overflow: visible; text-align: left;" pointer-events="none" width="100%" height="100%" requiredFeatures="http://www.w3.org/TR/SVG11/feature#Extensibility"><div xmlns="http://www.w3.org/1999/xhtml" style="display: flex; align-items: unsafe center; justify-content: unsafe center; width: 58px; height: 1px; padding-top: 39px; margin-left: 23px;"><div style="box-sizing: border-box; font-size: 0px; text-align: center;" data-drawio-colors="color: rgb(0, 0, 0); "><div style="display: inline-block; font-size: 14px; font-family: Helvetica; color: rgb(0, 0, 0); line-height: 1.2; pointer-events: all; white-space: normal; overflow-wrap: normal;">Device</div></div></div></foreignObject><text x="52" y="43" fill="rgb(0, 0, 0)" font-family="Helvetica" font-size="14px" text-anchor="middle">Device</text></switch></g><path d="M 371.49 99.86 L 371.47 110.36 L 352.5 94.83 L 371.53 79.36 L 371.51 89.86 L 393.51 89.9 L 393.53 79.4 L 412.5 94.94 L 393.47 110.4 L 393.49 99.9 Z" fill="none" stroke="rgb(0, 0, 0)" stroke-miterlimit="10" pointer-events="all"/></g><switch><g requiredFeatures="http://www.w3.org/TR/SVG11/feature#Extensibility"/><a transform="translate(0,-5)" xlink:href="https://www.diagrams.net/doc/faq/svg-export-text-problems" target="_blank"><text text-anchor="middle" font-size="10px" x="50%" y="100%">Text is not SVG - cannot display</text></a></switch></svg>
